iconography/32x32/Service.svg

<svg width="32" height="32" fill="none" xmlns="http://www.w3.org/2000/svg"><path d="m4 22.326 12 3.428v3.92L4 26.246v-3.92Zm12 3.428 12-3.428v3.92l-12 3.428v-3.92Z" stroke="#2E3141" stroke-width="2"/><path d="m4 22 9-2.5m6 0 9 2.5" stroke="#2E3141" stroke-width="2" stroke-linecap="round" stroke-linejoin="round"/><path d="M24.6 9.5h-.9c-.1 0-.2 0-.3.1-.1-.6-.4-1.2-.7-1.7.1 0 .2-.1.2-.2l.6-.6c.3-.3.3-.9 0-1.3l-1.9-1.9c-.3-.3-.9-.3-1.3 0l-.6.6c-.1.1-.1.2-.2.2-.5-.3-1.1-.6-1.8-.7.3 0 .3-.1.3-.2v-.9c0-.5-.4-.9-.9-.9h-2.7c-.5 0-.9.4-.9.9v.9c0 .1 0 .2.1.3-.6.1-1.2.4-1.7.7 0-.1-.1-.2-.2-.2l-.6-.7c-.3-.3-.9-.3-1.3 0L7.9 5.8c-.3.3-.3.9 0 1.3l.6.6c.1.1.2.1.2.2-.2.5-.5 1.1-.6 1.7-.1 0-.2-.1-.3-.1h-.9c-.5 0-.9.4-.9.9v2.7c0 .5.4.9.9.9h.9c.1 0 .2 0 .3-.1.2.6.4 1.2.7 1.8-.1 0-.2.1-.2.2l-.6.6c-.3.3-.3.9 0 1.3l1.9 1.9c.3.3.9.3 1.3 0l.5-.7c.1-.1.1-.2.2-.2.5.2 1.1.5 1.7.7 0 .1-.1.2-.1.3v.9c0 .5.4.9.9.9h2.7c.5 0 .9-.4.9-.9v-.9c0-.1 0-.2-.1-.3.6-.2 1.2-.4 1.8-.7 0 .1.1.2.2.2l.6.6c.3.3.9.3 1.3 0l1.9-1.9c.3-.3.3-.9 0-1.3l-.7-.6c-.1-.1-.2-.1-.2-.2.3-.5.6-1.1.7-1.8.1 0 .2.1.3.1h.9c.5 0 .9-.4.9-.9v-2.6c-.1-.5-.5-.9-1-.9Zm-8.8 6.3c-2.2 0-4-1.8-4-4s1.8-4 4-4 4 1.8 4 4-1.8 4-4 4Z" stroke="#2E3141" stroke-width="2" stroke-miterlimit="10" stroke-linecap="round" stroke-linejoin="round"/></svg>

<svg width="32" height="32" viewBox="0 0 32 32" fill="none" xmlns="http://www.w3.org/2000/svg">
<path d="M4 22.3257L16 25.7543V29.6743L4 26.2457L4 22.3257Z" stroke="#2E3141" stroke-width="2"/>
<path d="M16 25.7543L28 22.3257L28 26.2457L16 29.6743L16 25.7543Z" stroke="#2E3141" stroke-width="2"/>
<path d="M4 22L13 19.5M19 19.5L28 22" stroke="#2E3141" stroke-width="2" stroke-linecap="round" stroke-linejoin="round"/>
<path d="M24.6 9.5H23.7C23.6 9.5 23.5 9.5 23.4 9.6C23.3 9 23 8.4 22.7 7.9C22.8 7.9 22.9 7.8 22.9 7.7L23.5 7.1C23.8 6.8 23.8 6.2 23.5 5.8L21.6 3.9C21.3 3.6 20.7 3.6 20.3 3.9L19.7 4.5C19.6 4.6 19.6 4.7 19.5 4.7C19 4.4 18.4 4.1 17.7 4C18 4 18 3.9 18 3.8V2.9C18 2.4 17.6 2 17.1 2H14.4C13.9 2 13.5 2.4 13.5 2.9V3.8C13.5 3.9 13.5 4 13.6 4.1C13 4.2 12.4 4.5 11.9 4.8C11.9 4.7 11.8 4.6 11.7 4.6L11.1 3.9C10.8 3.6 10.2 3.6 9.8 3.9L7.9 5.8C7.6 6.1 7.6 6.7 7.9 7.1L8.5 7.7C8.6 7.8 8.7 7.8 8.7 7.9C8.5 8.4 8.2 9 8.1 9.6C8 9.6 7.9 9.5 7.8 9.5H6.9C6.4 9.5 6 9.9 6 10.4V13.1C6 13.6 6.4 14 6.9 14H7.8C7.9 14 8 14 8.1 13.9C8.3 14.5 8.5 15.1 8.8 15.7C8.7 15.7 8.6 15.8 8.6 15.9L8 16.5C7.7 16.8 7.7 17.4 8 17.8L9.9 19.7C10.2 20 10.8 20 11.2 19.7L11.7 19C11.8 18.9 11.8 18.8 11.9 18.8C12.4 19 13 19.3 13.6 19.5C13.6 19.6 13.5 19.7 13.5 19.8V20.7C13.5 21.2 13.9 21.6 14.4 21.6H17.1C17.6 21.6 18 21.2 18 20.7V19.8C18 19.7 18 19.6 17.9 19.5C18.5 19.3 19.1 19.1 19.7 18.8C19.7 18.9 19.8 19 19.9 19L20.5 19.6C20.8 19.9 21.4 19.9 21.8 19.6L23.7 17.7C24 17.4 24 16.8 23.7 16.4L23 15.8C22.9 15.7 22.8 15.7 22.8 15.6C23.1 15.1 23.4 14.5 23.5 13.8C23.6 13.8 23.7 13.9 23.8 13.9H24.7C25.2 13.9 25.6 13.5 25.6 13V10.4C25.5 9.9 25.1 9.5 24.6 9.5ZM15.8 15.8C13.6 15.8 11.8 14 11.8 11.8C11.8 9.6 13.6 7.8 15.8 7.8C18 7.8 19.8 9.6 19.8 11.8C19.8 14 18 15.8 15.8 15.8Z" stroke="#2E3141" stroke-width="2" stroke-miterlimit="10" stroke-linecap="round" stroke-linejoin="round"/>
</svg>
